X: 37719
T: Solas Sa Dorchadas
R: jig
M: 6/8
K: Dmajor
AFD DB,A,|B,EE E2F|DED DFA|Bdc def|
ad'b afd|g2e fed|B/c/dB BAF|1 EFA BGd:|2 EFA Bde||
fab afe|dBA def|afa b2d'|baf efa|
baf edB|BAF EFA|B/c/dB BAF|1 EFA Bde:|2 EFA B3||

